X: 31816
T: Patsy MacDonald's
R: reel
M: 4/4
K: Eminor
B2 BA BE(3EEE|EFGA BEEd|BdBA BEE2|EFGE DCB,G,|
[B,2E2]BA BEE2|EFGA BGBd|eage dBAc|BGAd B2(3EEE:|
efge (ea2)g|fded BEE2|efge (ea2)g|fded BEE2|
efge (ea2)g|fdef g2fg|afge fded|^cA (3AAA BE (3EEE:|

